X:99
T:???   Name  (3)
M:2/4
L:1/8
K:D
B/c/|dA FA|dd d>f|ed cd|ef gf/g/|!
af ge|dc A>F|GB A/B/A/G/|FD D:|!
|:d|ff/f/ ff|gg g2|ff/f/ fa|gf ef/g/|!
af ge|dc A>F|GB A/B/A/G/|FD D:|!


